X: 12669
T: Fastän
R: slip jig
M: 9/8
K: Fmajor
z2F-FG2 A2B|cdB- Bc2 A3|F2E- ED2 B,2D|A3 A6|
z2F-FG2 A2B|cdB- Bc2 A3|F2E- EF2 G2A|F3 F6:|
|:z2B- BA2 B2d|gec- c3 A3|z2B- BA2 B2d|e3 c6|
z2B- BA2 B2d|gaf- fg2 e3|c2B- BA2 F2G|F3 F6:|

